shark-off.svg

<svg fill="currentColor" viewBox="0 0 24 24"><path d="m11.26 8.06 7.27 7.27c.47-.16.93-.33 1.34-.52-.15-.18-.34-.37-.59-.51-.65-.39-1.46-.63-2.28-.8.82-.16 1.67-.28 2.59-.15.46.06.95.19 1.41.51.1.06.17.14.24.19C22.4 13.26 23 12.44 23 12c0-.87-3.81-2.5-7.44-2.91C14.66 7.18 12.54 6 11 6c.25.76.31 1.45.26 2.06m5.97 2.32c.61.12 1.2.29 1.74.46.03.05.03.1.03.16 0 .55-.45 1-1 1s-1-.45-1-1c0-.24.1-.45.23-.62m4.88 11.08-1.27 1.27-5.42-5.42c-.54.44-1.07.69-1.42.69v-2c-3 0-8-2-8-2s-2 3-4 3l1-4-2-6c2 0 5 4 5 4s.96-.38 2.3-.81L1.11 3l1.28-1.27z"/></svg>

<svg  viewBox="0 0 24 24" fill="currentColor"><path  d="M11.26 8.06L18.53 15.33C19 15.17 19.46 15 19.87 14.81C19.72 14.63 19.53 14.44 19.28 14.3C18.63 13.91 17.82 13.67 17 13.5C17.82 13.34 18.67 13.22 19.59 13.35C20.05 13.41 20.54 13.54 21 13.86C21.1 13.92 21.17 14 21.24 14.05C22.4 13.26 23 12.44 23 12C23 11.13 19.19 9.5 15.56 9.09C14.66 7.18 12.54 6 11 6C11.25 6.76 11.31 7.45 11.26 8.06M17.23 10.38C17.84 10.5 18.43 10.67 18.97 10.84C19 10.89 19 10.94 19 11C19 11.55 18.55 12 18 12S17 11.55 17 11C17 10.76 17.1 10.55 17.23 10.38M22.11 21.46L20.84 22.73L15.42 17.31C14.88 17.75 14.35 18 14 18V16C11 16 6 14 6 14S4 17 2 17L3 13L1 7C3 7 6 11 6 11S6.96 10.62 8.3 10.19L1.11 3L2.39 1.73L22.11 21.46Z"/></svg>
